X:1
T:Dance of the Swans, IV. Dance of the little Swans
T:Dance of the Swans, IV. Dance of the little Swans
T:Swan Lake, Piano Arrangement for 3 hands
T:Hinci
C:Hinci
%%score { ( 1 4 ) | 2 | 3 }
L:1/8
Q:1/4=102
M:4/4
K:A
V:1 treble nm="Piano" snm="Pno."
V:4 treble 
V:2 bass 
V:3 bass 
V:1
"^\n""^Allegro moderato." z8 | z!mp! .[FA].[FA].[FA] [FA]3/2([^EG]/4[FA]/4) .[GB].[FA] | %2
 [^EG].[GB].[GB].[GB] [GB]3/2([FA]/4[GB]/4) .[Ac].[GB] | .[FA].[FAc].[Acf].[Gc^e] !>![^EGc]4- | %4
 [EGc].[FAc].[Acf].[Gc^e] !>![^EGc]4- | %5
 [EGc]!mf!.[fa].[fa].[fa] [fa]3/2([^eg]/4[fa]/4) .[gb].[fa] | %6
 [^eg].[gb].[gb].[gb] [gb]3/2([fa]/4[gb]/4) .[ac'].[gb] | %7
 .[fa].[fac'].[ac'f'].[gc'^e'] !>![^egc']4- | [egc'].[fac'].[ac'f'].[gc'^e'] !>![^egc']4- | %9
 [egc']!mp!.[FAc].c.[E=Gc] .c.[CFc] (f/=e/).d/.c/ | [FB] !>!c2 !>!d2 !>!^A2 !>!B- | %11
 [FB].[FB].B.[=FB] .B.[EB]!<(! (e/d/c/B/ | A).[Ee] (g/f/e/d/ c).g (b/a/g/f/ | %13
 e)!<)!!mf!.[cc'].[cc'].[cc'] .[cc'].[cc'] ([ff']/[ee']/).[dd']/.[cc']/ | %14
 [Bb] !>![cc']2 !>![dd']2 !>![^A^a]2 !>![Bb]- | %15
 [Bb].[Bb].[Bb].[Bb] .[Bb].[Bb] ([ee']/[dd']/).[cc']/.[Bb]/ | %16
 .[Aa].[Ee]!>(! ([Cc]/[^D^d]/[Ee]/[^E^e]/) .[Ff].[Cc] (A/^A/B/^B/!>)! | %17
!mp! c).[FAc].c.[E=Gc] .c.[CFc] (f/e/).d/.c/ | [FB] !>!c2 !>!d2 !>!^A2 !>!B- | %19
 [FB].[FB].B.[=FB] .B.[EB]!<(! (e/d/c/B/ | A).[Ee] (g/f/e/d/ c).g (b/a/g/f/ | %21
 e)!<)!!mf!.[cc'].[cc'].[cc'] .[cc'].[cc'] ([ff']/[ee']/).[dd']/.[cc']/ | %22
 [Bb] !>![cc']2 !>![dd']2 !>![^A^a]2 !>![Bb]- | %23
 [Bb].[Bb].[Bb].[Bb] .[Bb].[Bb] ([ee']/[dd']/).[cc']/.[Bb]/ | %24
 .[Aa].[Ff]!>(! ([Gg]/[Aa]/[Bb]/[^B^b]/ [cc']).[Cc] ([Dd]/[^D^d]/[Ee]/[^E^e]/!>)! | %25
!mp! [Ff]).[FA].[FA].[FA] [FA]3/2([^EG]/4[FA]/4) .[GB].[FA] | %26
 [^EG].[GB].[GB].[GB] [GB]3/2([FA]/4[GB]/4) .[Ac].[GB] | .[FA].[FAc].[Acf].[Gc^e] !>![^EGc]4- | %28
 [EGc].[FAc].[Acf].[Gc^e] !>![^EGc]4- | %29
 [EGc]!mf!.[fa].[fa].[fa] [fa]3/2([^eg]/4[fa]/4) .[gb].[fa] | %30
 [^eg].[gb].[gb].[gb] [gb]3/2([fa]/4[gb]/4) .[ac'].[gb] | %31
 .[fa].[fac'].[ac'f'].[gc'^e'] !>![^egc']4- | [egc'].[fac'].[ac'f'].[gc'^e'] !>![^egc']4- | %33
 [egc']!p!([Acf][GB^e])([^EBc] [FAf])([Acf][GBe])([EBc] | [FAf]) [FAc]2 [D^EB]2 [CFA]2 ([B,EG] | %35
 [A,CF])!mp! ([ac'f'][gb^e'])([^ebc'] [faf'])([ac'f'][gbe'])([ebc'] | %36
 [faf']) [cac']2 [B^eb]2 [Afa]2 [GBeg] | [FAcf]!ff![Q:1/4=80][gc'^e'] [ac'f']2 !fermata!z4 |] %38
V:2
!p! .F,,.C,.F,,.C, .F,,.C,.F,,.C, | .F,,.C,.F,,.C, .F,,.C,.F,,.C, | .F,,.C,.F,,.C, .F,,.C,.F,,.C, | %3
 .F,,.C,.F,,.C, .F,,.C,.F,,.C, | F,,.C,.F,,.C, .F,,.C,.F,,.C, | .F,,!mp!.C,.F,,.C, .F,,.C,.F,,.C, | %6
 .F,,.C,.F,,.C, .F,,.C,.F,,.C, | .F,,.C,.F,,.C, .F,,.C,.F,,.C, | .F,,.C,.F,,.C, .F,,.C,.F,,.C, | %9
 .F,, .[F,C].B,.C .^A,.E.F,.[A,EF] | [B,D] z [=G,B,E] z [F,B,DF] z [CEF] z | %11
 .[B,,B,].[B,D].A,,.[B,D] .G,,.[B,D].E,,.[G,D] | .A,,.[A,C].C,.[A,CE] .E,.[A,CE].A,.[A,CE] | %13
 .[G,B,E].[=G,B,CE].F,.[^A,CF] .C,.[A,CF].^A,,.[A,EF] | [B,DF] z [B,E=G] z [B,DF] z [CEF] z | %15
 .[B,,B,].[B,DF].A,,.[B,D=F] .G,,.[B,DE].E,,.[G,DE] | .A,,.[A,CE].G,,.[CG] .F,,.[A,CA].D,.[CFG] | %17
 C,.[F,C].B,.C .^A,.E.F,.[A,EF] | [B,D] z [=G,B,E] z [F,B,DF] z [CEF] z | %19
 .[B,,B,].[B,D].A,,.[B,D] .G,,.[B,D].E,,.[G,D] | .A,,.[A,C].C,.[A,CE] .E,.[A,CE].A,.[A,CE] | %21
 .[G,B,E].[=G,B,CE].F,.[^A,CF] .C,.[A,CF].^A,,.[A,EF] | [B,DF] z [B,E=G] z [B,DF] z [CEF] z | %23
 .[B,,B,].[B,DF].A,,.[B,D=F] .G,,.[B,DE].E,,.[G,DE] | .A,.[A,CF].D,.[B,FG] .C,.[CFA].C,.[B,CG] | %25
 .[F,A,C]!p! .C,.F,,.C, .[A,,,F,,].C,.F,,.C, | .[A,,,F,,].C,.F,,.C, .[A,,,F,,].C,.F,,.C, | %27
 .[A,,,F,,].C,.F,,.C, .[A,,,F,,].C,.F,,.C, | .[A,,,F,,].C,.F,,.C, .[A,,,F,,].C,.F,,.C, | %29
 .[A,,,F,,]!mp!.C,.F,,.C, .[A,,,F,,].C,.F,,.C, | .[A,,,F,,].C,.F,,.C, .[A,,,F,,].C,.F,,.C, | %31
 .[A,,,F,,].C,.F,,.C, .[A,,,F,,].C,F,,.C, | .[A,,,F,,].C,.F,,.C, .[A,,,F,,].C,.F,,.C, | %33
 .[A,,,F,,] [F,,C,]3- [F,,C,] [F,,C,]3- | [F,,C,]2 [F,,C,]2 [F,,C,]2 [F,,C,]2 | %35
 .[F,,C,] [F,,C,]3- [F,,C,] [F,,C,]3- | [F,,C,]2 [F,,C,]2 [F,,C,]2 [F,,C,]2 | %37
 [F,,C,][C,,C,] [F,,F,]2 !fermata!z4 |] %38
V:3
 z8 | z8 | z8 | z4 z!mp! G, (C/B,/A,/G,/ | F,) z z2 z G, (C/B,/A,/G,/ | F,) z z2 z4 | z8 | %7
 z4 z[K:treble]!mp! [G,G] ([Cc]/[B,B]/[A,A]/[G,G]/ | %8
 [F,F]) z z2 z[K:treble] [G,G] ([Cc]/[B,B]/[A,A]/[G,G]/ | [F,F]) z z2 z4 | z8 | z8 | z8 | z8 | %14
[K:bass]!mf! B,, z E, z F, z F,, z | z8 | z8 | z z z2 z4 | z8 | z8 | z8 | z8 | %22
[K:bass]!mf! B,, z E, z F, z F,, z | z8 | z8 | z8 | z8 | z4 z!mp! G, (C/B,/A,/G,/ | %28
 F,) z z2 z G, (C/B,/A,/G,/ | F,) z z2 z4 | z8 | %31
 z4 z[K:treble]!mp! [G,G] ([Cc]/[B,B]/[A,A]/[G,G]/ | %32
 [F,F]) z z2 z[K:treble] [G,G] ([Cc]/[B,B]/[A,A]/[G,G]/ | [F,F]) z z2 z4 | z8 | z8 | z8 | %37
 z [CGc] [FAc]2 !fermata!z4 |] %38
V:4
 x8 | x8 | x8 | x8 | x8 | x8 | x8 | x8 | x8 | x8 | x8 | x7 E | z8 | x8 | x8 | x8 | x8 | x8 | x8 | %19
 x7 E | z8 | x8 | x8 | x8 | x8 | x8 | x8 | x8 | x8 | x8 | x8 | x8 | x8 | x8 | x8 | x8 | x8 | x8 |] %38

